packages/icons/svg/Device_Desktop_48px.svg

<svg xmlns="http://www.w3.org/2000/svg" viewBox="0 0 48 48"><path d="M42 7H6a2 2 0 00-2 2v27a2 2 0 002 2h10v3h-4.5a1.5 1.5 0 000 3h25a1.5 1.5 0 000-3H32v-3h10a2 2 0 002-2V9a2 2 0 00-2-2zm-1 3v18H7V10zM30 35H7v-5h34v5zm0 6H18v-3h12z"/></svg>

<svg xmlns="http://www.w3.org/2000/svg" viewBox="0 0 48 48"><defs></defs><g id="Icon"><path  d="M42,7H6A2,2,0,0,0,4,9V36a2,2,0,0,0,2,2H16v3H11.5a1.5,1.5,0,0,0,0,3h25a1.5,1.5,0,0,0,0-3H32V38H42a2,2,0,0,0,2-2V9A2,2,0,0,0,42,7Zm-1,3V28H7V10ZM30,35H7V30H41v5Zm0,6H18V38H30Z"/></g></svg>
